src/assets/outline/Health.svg

<svg width="24" height="24" viewBox="0 0 24 24"  xmlns="http://www.w3.org/2000/svg">
<path d="M14.9702 22.75H8.97021C3.54022 22.75 1.22021 20.43 1.22021 15V9C1.22021 3.57 3.54022 1.25 8.97021 1.25H14.9702C20.4002 1.25 22.7202 3.57 22.7202 9V15C22.7202 20.43 20.4102 22.75 14.9702 22.75ZM8.97021 2.75C4.36021 2.75 2.72021 4.39 2.72021 9V15C2.72021 19.61 4.36021 21.25 8.97021 21.25H14.9702C19.5802 21.25 21.2202 19.61 21.2202 15V9C21.2202 4.39 19.5802 2.75 14.9702 2.75H8.97021Z" />
<path d="M11.4502 18.0599C11.2102 18.0599 10.6302 17.9699 10.2902 17.0999L9.15023 14.2199C8.99023 13.8099 8.42023 13.4299 7.99023 13.4299L1.99023 13.4499C1.58023 13.4499 1.24023 13.1199 1.24023 12.6999C1.24023 12.2899 1.57023 11.9499 1.99023 11.9499L7.99023 11.9299H8.00023C9.05023 11.9299 10.1702 12.6899 10.5602 13.6699L11.4702 15.9699L13.5302 10.7499C13.8402 9.96989 14.3902 9.85989 14.6202 9.83989C14.8502 9.82989 15.4102 9.87989 15.8002 10.6199L16.8402 12.5899C17.0202 12.9299 17.5602 13.2599 17.9502 13.2599H22.0102C22.4202 13.2599 22.7602 13.5999 22.7602 14.0099C22.7602 14.4199 22.4202 14.7599 22.0102 14.7599H17.9502C17.0002 14.7599 15.9602 14.1299 15.5202 13.2899L14.7402 11.8099L12.6402 17.0999C12.2702 17.9599 11.6802 18.0599 11.4502 18.0599Z" />
</svg>

<?xml version="1.0" encoding="UTF-8"?>
<svg width="24" height="24" viewBox="0 0 24 24" xmlns="http://www.w3.org/2000/svg">
 <path d="m14.97 22.75h-6c-5.43 0-7.75-2.32-7.75-7.75v-6c0-5.43 2.32-7.75 7.75-7.75h6c5.43 0 7.75 2.32 7.75 7.75v6c0 5.43-2.31 7.75-7.75 7.75zm-6-20c-4.61 0-6.25 1.64-6.25 6.25v6c0 4.61 1.64 6.25 6.25 6.25h6c4.61 0 6.25-1.64 6.25-6.25v-6c0-4.61-1.64-6.25-6.25-6.25h-6z"/>
 <path d="m11.45 18.06c-0.24 0-0.82-0.09-1.16-0.96l-1.14-2.88c-0.16-0.41-0.73-0.79-1.16-0.79l-6 0.02c-0.41 0-0.75-0.33-0.75-0.75 0-0.41 0.33-0.75 0.75-0.75l6-0.02h0.01c1.05 0 2.17 0.76 2.56 1.74l0.91 2.3 2.06-5.22c0.31-0.78001 0.86-0.89001 1.09-0.91001 0.23-0.01 0.79 0.04 1.18 0.78001l1.04 1.97c0.18 0.34 0.72 0.67 1.11 0.67h4.06c0.41 0 0.75 0.34 0.75 0.75s-0.34 0.75-0.75 0.75h-4.06c-0.95 0-1.99-0.63-2.43-1.47l-0.78-1.48-2.1 5.29c-0.37 0.86-0.96 0.96-1.19 0.96z"/>
</svg>
